X: 36470
T: See Emily Fly
R: slide
M: 12/8
K: Amixolydian
Ace efe|Ace efe|d3 ded|BAG GAB|
Ace efe|Ace efe|ded BAG|1 AcB A2G:|2 AcB Acd||
eaa agf|edc cde|ded def|gfd ecd|
e2a agf|edc cde|ded BAG|1 AcB Acd:|2 AcB A3||
BAG Bdc|BAG Bcd|eAA fed|ecA ABc|
BAG Bdc|BAG dcB|cBA BdG|AcB A3:|

